X:17
T:Scottish ? Kerbeuf
R:Schottische
O:France
D:voir La Mirlitantouille
Z:Dave Holland <dave@biff.org.uk>
M:2/4
L:1/8
K:Cm
ce ge | d/e/d/c/ d2 | d/e/f/e/ d/c/B/c/ | de dc |\
ce ge | d/e/d/c/ d2 | d/e/f/e/ d/c/B/c/ | dB c2 :|
K:C
Gc ec | B/c/B/A/ G2 | B/c/d/e/ d/c/B/c/ | d/e/f/d/ ec |\
Gc ec | B/c/B/A/ G2 | B/c/d/e/ d/c/B/c/ | dB c2  :|
<end>
<start>
